X:1
T:The Swan
T:The Swan
T:Jay Chou/ Saint Saen
T:Arr. By Lee-Daniel Tran
C:Arr. By Lee-Daniel Tran
%%score { ( 1 3 ) | 2 }
L:1/8
Q:1/4=80
M:6/4
K:Gb
V:1 treble nm="Piano" snm="Pno."
V:3 treble 
V:2 bass 
V:1
 z2 (B,/G/B/G/ z2 z2 B,/G/B/G/) z2 | (g/b/g'/d'/ f/d'/b/g/ B/g/d/G/ e/g/d'/b/ d/b/g/B/ G/d/G/D/) | %2
 A/C/G/B/ [EA]/c/g/b/ a/e/B/d/ c/B/=d/f/ e/a/g/e/ c/A/F/G/ | %3
 E/C/B,/_D/ C/G/B/A/ F/_F/G/E/ A/__A/B/G/ c/=F/_d/=c/ e/_A/f/B/ | %4
!mf! b8"_dim." [Dd]/_A/G/d/ e/A/B/d/ | %5
!mp! (g/b/g'/d'/ f/d'/b/g/ B/g/d/G/ e/g/d'/b/ d/b/g/B/ G/d/B/D/) | %6
 =A/=C/G/B/ [EA]/=c/f/=a/ g/e/B/d/ c/=B/=d/f/ e/g/f/e/ c/A/G/A/ | %7
 F/_D/=A,/=C/ _B,/D/=G/_G/ =A/F/_B/_d/ =c/B/_d/B/ e/=A/f/=d/ =g/_d/=a/=c/- | %8
 d'8 [Ff]/=c/B/e/ f/c/d/f/ | %9
 (d'/g/f/_f/ b/e/__e/d/ g/=c/d/=d/ _e/=F/G/c/ =f/=d/_f/e/ g/__e/_d/=c/) | %10
 (!arpeggio![c_d-]2 [Bd]2 __B_e [A=f]/F/G/A/ _B/c/d/e/ f/g/a/b/) | %11
 (c'/_f/e/__e/ a/d/__d/c/ f/B/c/=c/ _d/_E/_F/B/ _e/c/__e/d/ f/c/_c/B/) | %12
 (([__Bc]2 [Ac]2) __Ad) [G_e]/E/C/D/ E/_F/G/_A/ _B/c/d/e/ | %13
 (e/A/__A/G/ _A/_F/E/=D/ _B/=C/_D/=D/ [E_c]2 z/ E/A/E/ _d/=G/e/_G/) | %14
 ([=F=f]cecAG [Fe]/G/=G/A/ B/c/d/e/ f/a/c'/d'/) | %15
 [ee']/a/b/a/ [Aa]/d/e/d/ [Bb]/d/e/d/ [B=c']/g/a/g/ =c/g/a/g/ [dd']/g/[ec'e']/g/ | _f'6 =f'6 | %17
 [gg']/b/e'/__e'/ [ff']/d'/b/g/ [Bb]/d/f/g/ [e_e']/g/=a/b/ [dd']/b/g/d/ [Gg]/=A/B/d/ | %18
 a/c/e/c/ F/_A/c/e/ [Afa]/e/[Bb]/e/ [Bc']/e/a/e/ A/c/e/=g/ a/c/_G/F/ | %19
 [Ee]/B/d/=c/ _c/B/=G/A/ [Ff]/d/[_G_g]/=c/ [Aa]/g/[Bb]/f/ [_c_c']/e/[dd']/c'/ [ee']/b/[ff']/__b/ | %20
 [_f'_b']6 e2 d2 _F2 | %21
 [bb']/c'/e'/=g'/ [aa']/e'/c'/=g/ [ee']/=g/a/c'/ [_g_g']/=g/a/c'/ [ff']/c'/a/=e/ [cc']/=d/_e/a/ | %22
 [ee']/_g/=a/b/ [_d_d']/b/g/d/ [Gg]/=A/B/d/ [G_a]/c/e/g/ [cb]/g/e/c/ [Gg]/_A/c/e/ | %23
 [Bdb]6 !arpeggio![dgc']2 !arpeggio![cad']2[Q:1/4=40] !arpeggio![=G_fb]2 | %24
[Q:1/4=80] !arpeggio![e_gc'e']/d'/c''/e'/ c'/g'/e'/g/ e/c'/g/c/ !arpeggio![dc'e']2 !arpeggio![ed'f']2 !arpeggio![cad']2 | %25
[Q:1/4=30] [gbg']2[Q:1/4=80] b/g'/[ad']/__a/ g/d'/[fb]/e/ d/_b/[=cf]/_c/ B/g/[_Ad]/__A/ g/d'/[fb]/e/ | %26
 d/b/[=cf]/_c/ B/g/[_Ad]/__A/ G/d/[FB]/E/ D/B/[=CF]/_C/ B,/G/C/=C/ D/B/[CF]/_C/ | %27
 B,/G/C/=C/ D/B/[CF]/_C/ B,/G/C/=C/ D/B/[_CF]/_C/[Q:1/4=30] [B,G]2 !arpeggio!!fermata![dgbg']2 | %28
 z12 |] %29
V:2
!mp! G,,/D,/G,/D,/ z2 D/B,/D,/B,/ G,,/D,/G,/D,/ z2 D/B,/D,/B,/ | (G,,D,B,D,DB, G,,D,B,D,DB,) | %2
 G,,E,A,E,CA, G,,E,A,E,CA, | G,,E,A,E,CA,"_cresc." =F,E,__E,D,A,D | %4
 G,,/D,/B,/_E/ G/D/A,/_E,/ B,/G,/E,/D,/ G,,/D,/A,/B,/ DB,G,D, | (G,,D,B,D,DB, G,,D,G,D,B,G,) | %6
 G,,E,=A,E,=CA, F,,E,CA,EC | F,,D,F,B,D=E _ED[=CF]_CB,[F,E] | %8
 B,,/F,/D/F/ B/E/A,/=G,/ D/B,/_G,/F,/ B,,/F,/=C/D/ FDB,F, | (B,,G,DG,B,,G, __B,,E,=CG,EE,) | %10
 (A,,/G,/_C/D,/ D/=C/_C/G/ F/E/D/=C/ _C/E,/A,,/E,/ __E,/A,,/D,,/A,,/ D,/A,,/F,/C/) | %11
 (A,,_F,CF,A,,F, =G,,D,B,F,DD,) | %12
 _G,,/_F,/__B,/C,/ C/_B,/__B,/_F/ E/D/C/_B,/ __B,/D,/G,,/D,/ __D,/G,,/C,,/G,,/ C,/G,,/E,/_B,/ | %13
 (_F,,A,,_F,A,,A,F,) (E,,/A,,/E,/A,,/ A,[A,,E,] [A,,E,B,]2) | %14
 ([E,C]/A,,/E,/D,,/ A,,/D,,/A,,/D,/ B,,/D/G,/E/ C,/A,/D/A,/ C,/A,,/D,,/A,,/ D,/A,,/E,/E,,/) | %15
 [_F,,_F,]/A,,/F,/A,/ D/A,/_F/D/ A,/F,/A,,/F,,/ [E,,E,]/A,,/G,/A,/ A/G/=C/A,/ C/G,/E,/A,,/ | %16
 D,,/A,,/A,/D,/ _F,/A,/_F/A,/ A/F/D/A,/[K:treble] [DB]/d/B/D/ A/=F/D/A,/[K:bass] D/A,/D,/D,,/ | %17
 [G,,,G,,]D,B,D,DB, G,,D,G,D,B,G, | %18
 G,,/E,/A,/E,/ F/C/A,/E,/ A,/E,/G,,/E,/ G,,/E,/C/E,/ A/C/A,/C,/ C/A,/E,/A,/ | %19
!mp! G,,E,/A,/ E,D/=C/ [E,_C]B,/[__E,A,]/ [G,,_E,]D,/A,/ GF/E/ _D=C/_C/ | %20
 B,/_F,/G,,/F,/ B,/D/_F/B,/ G,/_F,/B,,/_F,,/ E,,D,=G,B, _FB,/D,/ | %21
 C,,C,/E,/ CA/=G/ _GC/E,/ A,,,A,,/F,/ A,F/=E/ _EA,/F,/ | %22
!mp! B,,,B,,/D,/ G,B,/D/ =C_C/B,/ E,,A,,/C,/ G,A,/C/ _E2 | %23
 D,,/D,/D,/B,/ A/D/=C/_C/ B,/D/G,/D,/ D,,/D,/D,/G,/ D/G,/D/G/ !arpeggio![D,C_F]2 | %24
 D,,/D,/A,/E/ c/_G/F/_F/ E/G/C/A,/ D,,/A,,/D,/=F,/ A,,/D,/F,/C/ [D=F]2 | %25
 [G,,,G,,]2[K:treble]!ped! d'/=c'/_c'/b/ __b/a/__a/g/ f/_f/e/__e/ d/=c/_c/_B/ __B/_A/__A/G/ | %26
 =F/_F/E/__E/ D/=C/_C/_B,/[K:bass] __B,/_A,/__A,/G,/ =F,/_F,/_E,/__E,/ [G,,D,]/=D,/_E,/=E,/ =F,/_F,/_C,/__C,/ | %27
 [G,,_D,]/=D,/_E,/=E,/ =F,/_F,/_E,/__E,/ [G,,_D,]/D,/_E,/=E,/ =F,/_F,/_E,/__E,/ [G,,_D,]2 !arpeggio![G,DB]2 | %28
 G,,,12!ped-up! |] %29
V:3
 x12 | x12 | x12 | x12 | x2 g2 B2 [Ee]2 z4 | x12 | x12 | x12 | c2 b2 d2 !arpeggio![Gg]2 z4 | x12 | %10
 x12 | x12 | x12 | x12 | x12 | x12 | %16
 e/a/d'/a/ d/a/d'/a/ A/d/a/d'/ =f/_c'/d'/f/ c'/d/f/c/ d/f/c'/d'/ | x12 | x12 | x12 | %20
 a2 g/_b/d/c/ B/D/G/B/ e/B/__B/A/ d/=G/_G/=F/ _F/d/_b/=g'/ | x12 | x12 | %23
 z/ a/g'/b/ g/d'/b/d/ B/g/d/G/ z6 | x12 | x12 | x12 | x12 | x12 |] %29

